svg/hamburger.svg

<svg width="39" height="32" viewBox="0 0 39 32" fill="none" xmlns="http://www.w3.org/2000/svg">
<path d="M2.28352 10.6549C8.29842 10.1785 14.5637 9.55553 20.5231 10.5919C22.5378 10.9423 24.8094 10.6549 26.8392 10.6549C28.6642 10.6549 30.5134 10.7509 32.3363 10.6549C33.0692 10.6164 36.022 9.95551 36.022 9.66264C36.022 8.43326 36.0884 7.3287 35.6755 6.18168C34.8114 3.78152 31.8 3.28352 29.5011 3.28352C26.7132 3.28352 23.783 3 20.9326 3C19.3916 3 17.9707 3.28352 16.4278 3.28352C14.1371 3.28352 11.6277 3.05299 9.43443 3.85055C5.88961 5.13958 3.19691 6.78069 2 10.3714" stroke="#15CE79" stroke-width="2" stroke-linecap="round"/>
<path d="M3.41797 17.1341C4.1509 16.9712 4.48462 16.2835 5.40258 16.2835C6.09908 16.2835 6.50841 16.2993 7.10368 16.63C8.00763 17.1322 9.90719 18.7232 11.0729 18.2051C12.1257 17.7372 13.0333 16.7666 14.1601 16.63C16.6588 16.3272 18.1706 17.2943 20.429 17.9216C21.161 18.125 21.6591 18.3958 22.4136 18.1264C23.0118 17.9127 24.0878 17.4506 24.6817 17.4176C26.9129 17.2936 28.5072 18.8352 30.6355 18.8352C32.1171 18.8352 32.9621 18.4335 34.0377 17.4176C34.8553 16.6454 35.9453 16.4638 36.8729 16" stroke="#15CE79" stroke-width="2" stroke-linecap="round"/>
<path d="M3.31162 24.7282C4.828 23.528 9.31359 24.1732 11.0328 24.1732C13.5488 24.1732 16.0649 24.1732 18.5809 24.1732C22.5742 24.1732 26.5675 24.1732 30.5609 24.1732C32.0209 24.1732 33.4809 24.1732 34.9408 24.1732C36.713 24.1732 35.8597 25.2808 35.2525 26.3621C34.0891 28.4339 31.5863 29.5964 29.0374 29.7225C26.4812 29.849 23.9707 30 21.3855 30C18.9243 30 16.5732 29.4451 14.0624 29.4451C9.80973 29.4451 3 30.0491 3 24.7282" stroke="#15CE79" stroke-width="2" stroke-linecap="round"/>
</svg>

<svg xmlns="http://www.w3.org/2000/svg" width="39" height="32" fill="none"><path stroke="#15CE79" stroke-linecap="round" stroke-width="2" d="M2.284 10.655c6.014-.476 12.28-1.1 18.24-.063 2.014.35 4.285.063 6.315.063 1.825 0 3.674.096 5.497 0 .733-.039 3.686-.7 3.686-.992 0-1.23.066-2.334-.346-3.481-.865-2.4-3.876-2.898-6.175-2.898-2.788 0-5.718-.284-8.568-.284-1.541 0-2.962.284-4.505.284-2.29 0-4.8-.231-6.994.567C5.89 5.14 3.197 6.78 2 10.37m1.418 6.764c.733-.163 1.067-.85 1.985-.85.696 0 1.105.015 1.7.346.905.502 2.804 2.093 3.97 1.575 1.053-.468 1.96-1.438 3.087-1.575 2.499-.303 4.01.664 6.269 1.292.732.203 1.23.474 1.985.204.598-.213 1.674-.675 2.268-.708 2.23-.124 3.825 1.417 5.954 1.417 1.481 0 2.326-.402 3.402-1.417.817-.773 1.907-.954 2.835-1.418M3.312 24.728c1.516-1.2 6.002-.555 7.72-.555h23.909c1.772 0 .919 1.108.311 2.19-1.163 2.07-3.666 3.233-6.215 3.36-2.556.126-5.066.277-7.651.277-2.462 0-4.813-.555-7.324-.555C9.81 29.445 3 30.05 3 24.728"/></svg>
